!!!OTL: ROLAND DER RIES AM RATHHAUS ZU BREMEN
!!!ARE: Europa, Mitteleuropa, Deutschland
!!!SCT: B0106
!!!YEM: Copyright 1995, estate of Helmut Schaffrath.
**kern
*ICvox
*Ivox
*M4/4
*k[f#]
*e:
=1
{4e
8B
8B
4f#
4B
=2
4gn
8f#
8e
4f#
4B}
=3
{4e
8B
8B
4f#
4B
=4
4gn
8f#
8e
4b
4r}
=5
{4ddn
8ccn
8b
4a
4dn
=6
4ccn
8b
8a
4gn
4dn}
=7
{8e
8f#
8gn
8a
4b
4e
=8
4ccn
8b
8a
2b}
=9
{4ee
8b
8b
4ccn
4a
=10
4f#
8b
8b
4e
4r}
==
!!!AGN: Helden -, Ehren -, Gedaechtnis -, Kriegs - Lied
!!!ONB: ESAC (Essen Associative Code) Database: BOEHME
!!!AMT: simple quadruple
!!!AIN: vox
!!!EED: Helmut Schaffrath
!!!EEV: 1.0
*-
